vendor/shopware/storefront/Resources/app/storefront/dist/assets/icon/default/clock.svg

<svg xmlns="http://www.w3.org/2000/svg" width="24" height="24" viewBox="0 0 24 24">
  <path fill="#758CA3" fill-rule="evenodd" d="M13,11 L13,6 C13,5.44771525 12.5522847,5 12,5 C11.4477153,5 11,5.44771525 11,6 L11,12 C11,12.5522847 11.4477153,13 12,13 L16,13 C16.5522847,13 17,12.5522847 17,12 C17,11.4477153 16.5522847,11 16,11 L13,11 Z M12,24 C5.372583,24 0,18.627417 0,12 C0,5.372583 5.372583,0 12,0 C18.627417,0 24,5.372583 24,12 C24,18.627417 18.627417,24 12,24 Z M12,22 C17.5228475,22 22,17.5228475 22,12 C22,6.4771525 17.5228475,2 12,2 C6.4771525,2 2,6.4771525 2,12 C2,17.5228475 6.4771525,22 12,22 Z"/>
</svg>

<svg xmlns="http://www.w3.org/2000/svg" width="24" height="24" viewBox="0 0 24 24"><path fill="#758CA3" fill-rule="evenodd" d="M13 11V6c0-.5523-.4477-1-1-1s-1 .4477-1 1v6c0 .5523.4477 1 1 1h4c.5523 0 1-.4477 1-1s-.4477-1-1-1h-3zm-1 13C5.3726 24 0 18.6274 0 12S5.3726 0 12 0s12 5.3726 12 12-5.3726 12-12 12zm0-2c5.5228 0 10-4.4772 10-10S17.5228 2 12 2 2 6.4772 2 12s4.4772 10 10 10z"/></svg>
